.gitbook/assets/Slack (1).svg

<svg xmlns="http://www.w3.org/2000/svg" width="404" height="251" fill="none" viewBox="0 0 404 251"><path fill="#F0894F" d="M0 0h404v251H0V0Z"/><path fill="#572900" fill-rule="evenodd" d="M240.14 126a13.376 13.376 0 0 0 4.027-9.583c0-7.41-6.007-13.417-13.417-13.417-2.058 0-4.007.463-5.75 1.291v-7.04c0-7.41-6.007-13.418-13.417-13.418A13.377 13.377 0 0 0 202 87.862a13.375 13.375 0 0 0-9.583-4.028c-7.41 0-13.417 6.007-13.417 13.417 0 2.058.463 4.007 1.291 5.75h-7.041c-7.41 0-13.417 6.007-13.417 13.417 0 3.754 1.542 7.148 4.027 9.583a13.377 13.377 0 0 0-4.027 9.583c0 7.41 6.007 13.417 13.417 13.417 2.058 0 4.007-.463 5.75-1.291v7.041c0 7.41 6.007 13.417 13.417 13.417 3.754 0 7.148-1.542 9.583-4.027a13.377 13.377 0 0 0 9.583 4.027c7.41 0 13.417-6.007 13.417-13.417 0-2.058-.463-4.007-1.291-5.75h7.041c7.41 0 13.417-6.007 13.417-13.417 0-3.753-1.542-7.148-4.027-9.583Zm-47.723-34.5a5.75 5.75 0 0 1 5.75 5.75V103h-5.75a5.75 5.75 0 1 1 0-11.5Zm13.416 5.75a5.75 5.75 0 0 1 11.5 0v24.917h-11.5V97.25Zm-7.666 24.917v-11.5H173.25a5.75 5.75 0 0 0 0 11.5h24.917Zm26.833 0h5.75a5.75 5.75 0 1 0-5.75-5.75v5.75Zm5.75 7.666h-24.917v11.5h24.917a5.75 5.75 0 1 0 0-11.5ZM211.583 149h-5.75v5.75a5.75 5.75 0 1 0 5.75-5.75Zm-13.416-19.167h-11.5v24.917a5.75 5.75 0 1 0 11.5 0v-24.917Zm-24.917 0H179v5.75a5.75 5.75 0 1 1-5.75-5.75Z" clip-rule="evenodd"/></svg>

<svg width="404" height="251" viewBox="0 0 404 251" fill="none" xmlns="http://www.w3.org/2000/svg">
<path d="M0 0L404 0L404 251L0 251L0 0Z" fill="#F0894F"/>
<path fill-rule="evenodd" clip-rule="evenodd" d="M240.14 126C242.625 123.565 244.167 120.171 244.167 116.417C244.167 109.007 238.16 103 230.75 103C228.692 103 226.743 103.463 225 104.291V97.2502C225 89.8403 218.993 83.8335 211.583 83.8335C207.83 83.8335 204.435 85.3754 202 87.8605C199.565 85.3754 196.171 83.8335 192.417 83.8335C185.007 83.8335 179 89.8403 179 97.2502C179 99.3079 179.463 101.257 180.291 103H173.25C165.84 103 159.833 109.007 159.833 116.417C159.833 120.171 161.375 123.565 163.86 126C161.375 128.435 159.833 131.83 159.833 135.583C159.833 142.993 165.84 149 173.25 149C175.308 149 177.257 148.537 179 147.709V154.75C179 162.16 185.007 168.167 192.417 168.167C196.171 168.167 199.565 166.625 202 164.14C204.435 166.625 207.83 168.167 211.583 168.167C218.993 168.167 225 162.16 225 154.75C225 152.692 224.537 150.743 223.709 149H230.75C238.16 149 244.167 142.993 244.167 135.583C244.167 131.83 242.625 128.435 240.14 126ZM192.417 91.5002C195.592 91.5002 198.167 94.0745 198.167 97.2502V103H192.417C189.241 103 186.667 100.426 186.667 97.2502C186.667 94.0745 189.241 91.5002 192.417 91.5002ZM205.833 97.2502C205.833 94.0745 208.408 91.5002 211.583 91.5002C214.759 91.5002 217.333 94.0745 217.333 97.2502V122.167H205.833V97.2502ZM198.167 122.167V110.667H173.25C170.075 110.667 167.5 113.241 167.5 116.417C167.5 119.592 170.075 122.167 173.25 122.167H198.167ZM225 122.167H230.75C233.926 122.167 236.5 119.592 236.5 116.417C236.5 113.241 233.926 110.667 230.75 110.667C227.575 110.667 225 113.241 225 116.417V122.167ZM230.75 129.833H205.833V141.333H230.75C233.926 141.333 236.5 138.759 236.5 135.583C236.5 132.408 233.926 129.833 230.75 129.833ZM211.583 149H205.833V154.75C205.833 157.926 208.408 160.5 211.583 160.5C214.759 160.5 217.333 157.926 217.333 154.75C217.333 151.575 214.759 149 211.583 149ZM198.167 129.833H186.667V154.75C186.667 157.926 189.241 160.5 192.417 160.5C195.592 160.5 198.167 157.926 198.167 154.75V129.833ZM173.25 129.833H179V135.583C179 138.759 176.426 141.333 173.25 141.333C170.075 141.333 167.5 138.759 167.5 135.583C167.5 132.408 170.075 129.833 173.25 129.833Z" fill="#572900"/>
</svg>
